src/assets/filled/TaskSquare.svg

<?xml version="1.0" encoding="UTF-8"?>
<svg width="24" height="24" viewBox="0 0 24 24" xmlns="http://www.w3.org/2000/svg">
 <path d="m16.19 2h-8.38c-3.64 0-5.81 2.17-5.81 5.81v8.38c0 3.64 2.17 5.81 5.81 5.81h8.38c3.64 0 5.81-2.17 5.81-5.81v-8.38c0-3.64-2.17-5.81-5.81-5.81zm-6.22 12.9-2.25 2.25c-0.15 0.15-0.34 0.22-0.53 0.22s-0.39-0.07-0.53-0.22l-0.75-0.75c-0.3-0.29-0.3-0.77 0-1.06 0.29-0.29 0.76-0.29 1.06 0l0.22 0.22 1.72-1.72c0.29-0.29 0.76-0.29 1.06 0 0.29 0.29 0.29 0.77 0 1.06zm0-7-2.25 2.25c-0.15 0.15-0.34 0.22-0.53 0.22s-0.39-0.07-0.53-0.22l-0.75-0.75c-0.3-0.29-0.3-0.77 0-1.06 0.29-0.29 0.76-0.29 1.06 0l0.22 0.22 1.72-1.72c0.29-0.29 0.76-0.29 1.06 0 0.29 0.29 0.29 0.77 0 1.06zm7.59 8.72h-5.25c-0.41 0-0.75-0.34-0.75-0.75s0.34-0.75 0.75-0.75h5.25c0.42 0 0.75 0.34 0.75 0.75s-0.33 0.75-0.75 0.75zm0-7h-5.25c-0.41 0-0.75-0.34-0.75-0.75s0.34-0.75 0.75-0.75h5.25c0.42 0 0.75 0.34 0.75 0.75s-0.33 0.75-0.75 0.75z"/>
</svg>

<svg width="24" height="24" viewBox="0 0 24 24"  xmlns="http://www.w3.org/2000/svg">
<path d="M16.19 2H7.81C4.17 2 2 4.17 2 7.81V16.19C2 19.83 4.17 22 7.81 22H16.19C19.83 22 22 19.83 22 16.19V7.81C22 4.17 19.83 2 16.19 2ZM9.97 14.9L7.72 17.15C7.57 17.3 7.38 17.37 7.19 17.37C7 17.37 6.8 17.3 6.66 17.15L5.91 16.4C5.61 16.11 5.61 15.63 5.91 15.34C6.2 15.05 6.67 15.05 6.97 15.34L7.19 15.56L8.91 13.84C9.2 13.55 9.67 13.55 9.97 13.84C10.26 14.13 10.26 14.61 9.97 14.9ZM9.97 7.9L7.72 10.15C7.57 10.3 7.38 10.37 7.19 10.37C7 10.37 6.8 10.3 6.66 10.15L5.91 9.4C5.61 9.11 5.61 8.63 5.91 8.34C6.2 8.05 6.67 8.05 6.97 8.34L7.19 8.56L8.91 6.84C9.2 6.55 9.67 6.55 9.97 6.84C10.26 7.13 10.26 7.61 9.97 7.9ZM17.56 16.62H12.31C11.9 16.62 11.56 16.28 11.56 15.87C11.56 15.46 11.9 15.12 12.31 15.12H17.56C17.98 15.12 18.31 15.46 18.31 15.87C18.31 16.28 17.98 16.62 17.56 16.62ZM17.56 9.62H12.31C11.9 9.62 11.56 9.28 11.56 8.87C11.56 8.46 11.9 8.12 12.31 8.12H17.56C17.98 8.12 18.31 8.46 18.31 8.87C18.31 9.28 17.98 9.62 17.56 9.62Z" />
</svg>
